X:1
T:The Well Below the Valley
M:6/8
L:1/8
K:Bb
 A| A2 dd e2| d2 cA =B2| ccd c2 A| G2 E EDE| F2 G A2 G| E2 D D3| A3 A2 G|\
 E2 D D3| G2 G A2 G| E2 D D3|
